X:17
T:Bill Hart's 
R:jig
M:6/8
K:Amix
"A"~A3 ~e3|"D"fed "A"efe|"A"~A3 ~e3|"D"fed "G"BdB|
"A"~A3 ~e3|"D"fed "A"efg|"Asus4"aba "G"g2e|
1 "D"fed "Bm"BdB:|2 "D"fed "bm"B2A||
"A"~a3 gag|"D"fed "A"efg|"A"aba "G"g2e|"D"fed "Bm"B2A|
"A"agf gfe|"D"fed "A"efg|"Asus4"aba "G"g2e|"D"fed "Bm"B2A|
"A"a2f g2e|"D"fed "A"efg|"A"aba "G"g2e|"D"fed "Bm"B2A|
"A"agf gfe|"D"fed "A"efg|"Asus4"aba "G"g2e|"D"fed BmBdB||
